; generated by Slic3r 0.9.1 on 2012-08-20 at 15:42:19

; layer_height = 0.25
; perimeters = 3
; solid_layers = 3
; fill_density = 0.4
; perimeter_speed = 30
; infill_speed = 60
; travel_speed = 130
; scale = 1
; nozzle_diameter = 0.35
; filament_diameter = 1.75
; extrusion_multiplier = 1
; single wall width = 0.39mm
; first layer single wall width = 0.70mm

M190 S5 ; wait for bed temperature to be reached
M104 S205 ; set temperature
G28 ; home all axes
M109 S205 ; wait for temperature to be reached
G90 ; use absolute coordinates
G21 ; set units to millimeters
G92 E0
M82 ; use absolute distances for extrusion
G1 Z0.350 F7800.000
G1 X-18.820 Y-8.240
G1 F1800.000 E1.00000
G1 X-18.670 Y-8.760 F540.000 E1.04921
G1 X-18.370 Y-9.510 E1.12266
G1 X-18.120 Y-9.980 E1.17107
G1 X-17.680 Y-10.650 E1.24395
G1 X-17.340 Y-11.070 E1.29309
G1 X-16.770 Y-11.640 E1.36639
G1 X-16.350 Y-11.980 E1.41552
G1 X-15.680 Y-12.420 E1.48841
G1 X-15.210 Y-12.670 E1.53682
G1 X-14.460 Y-12.970 E1.61027
G1 X-13.940 Y-13.120 E1.65948
G1 X-13.420 Y-13.230 E1.70781
G1 X-12.620 Y-13.310 E1.78091
G1 X-1.940 Y-13.300 E2.75204
G1 X-1.610 Y-13.280 E2.78210
G1 X-0.970 Y-13.190 E2.84087
G1 X0.510 Y-12.830 E2.97937
G1 X14.010 Y-9.020 E4.25487
G1 X16.200 Y-8.210 E4.46719
G1 X16.690 Y-7.980 E4.51641
G1 X17.160 Y-7.720 E4.56525
G1 X17.820 Y-7.250 E4.63893
G1 X18.230 Y-6.890 E4.68854
G1 X18.420 Y-6.700 E4.71297
G1 X18.950 Y-6.090 E4.78645
G1 X19.260 Y-5.640 E4.83614
G1 X19.530 Y-5.180 E4.88464
G1 X19.760 Y-4.690 E4.93386
G1 X20.040 Y-3.930 E5.00751
G1 X20.170 Y-3.400 E5.05713
G1 X20.280 Y-2.600 E5.13056
G1 X20.300 Y-2.330 E5.15517
G1 X20.300 Y2.320 E5.57800
G1 X20.250 Y2.870 E5.62821
G1 X20.160 Y3.410 E5.67799
G1 X20.030 Y3.940 E5.72762
G1 X19.950 Y4.200 E5.75235
G1 X19.750 Y4.710 E5.80216
G1 X19.380 Y5.440 E5.87658
G1 X18.920 Y6.120 E5.95123
G1 X18.570 Y6.540 E6.00094
G1 X18.180 Y6.930 E6.05110
G1 X17.550 Y7.450 E6.12538
G1 X16.860 Y7.890 E6.19979
G1 X16.370 Y8.130 E6.24940
G1 X13.420 Y9.210 E6.53505
G1 X5.330 Y11.570 E7.30134
G1 X-0.940 Y13.170 E7.88973
G1 X-1.270 Y13.230 E7.92023
G1 X-1.600 Y13.270 E7.95046
G1 X-2.270 Y13.300 E8.01144
G1 X-12.620 Y13.300 E8.95256
G1 X-13.420 Y13.220 E9.02567
G1 X-13.940 Y13.110 E9.07400
G1 X-14.460 Y12.960 E9.12321
G1 X-15.210 Y12.660 E9.19666
G1 X-15.680 Y12.410 E9.24507
G1 X-16.350 Y11.970 E9.31796
G1 X-16.770 Y11.630 E9.36709
G1 X-17.340 Y11.060 E9.44039
G1 X-17.680 Y10.640 E9.48952
G1 X-18.120 Y9.970 E9.56241
G1 X-18.370 Y9.500 E9.61082
G1 X-18.670 Y8.750 E9.68427
G1 X-18.820 Y8.230 E9.73348
G1 X-18.930 Y7.710 E9.78181
G1 X-19.010 Y6.910 E9.85492
G1 X-19.010 Y-6.920 E11.11247
G1 X-18.930 Y-7.720 E11.18558
G1 X-18.844 Y-8.138 E11.22436
G1 F1800.000 E10.22436
G92 E0
G1 X-2.545 Y5.354 F7800.000
G1 F1800.000 E1.00000
G1 X-2.727 Y4.805 F540.000 E1.05250
G1 X1.144 Y3.225 E1.43264
G1 X1.144 Y-3.225 E2.01920
G1 X-2.783 Y-4.828 E2.40484
G1 X-2.605 Y-5.372 E2.45684
G1 X6.530 Y-2.942 E3.31638
G1 X6.530 Y-2.942 E3.31638
G1 X8.115 Y-2.487 E3.46633
G1 X8.115 Y-2.487 E3.46633
G1 X12.325 Y-1.130 E3.86855
G1 X12.325 Y1.133 E4.07432
G1 X5.197 Y3.314 E4.75213
G1 X5.197 Y3.314 E4.75213
G1 X4.143 Y3.608 E4.85165
G1 X4.143 Y3.608 E4.85165
G1 X-2.443 Y5.327 E5.47061
G1 F1800.000 E4.47061
G92 E0
G1 X-6.397 Y5.212 F7800.000
G1 F1800.000 E1.00000
G1 X-6.397 Y5.988 F540.000 E1.07048
G1 X-11.685 Y5.988 E1.55132
G1 X-11.685 Y5.212 E1.62180
G1 X-6.502 Y5.212 E2.09310
G1 X-5.941 Y5.624 F7800.000
G1 X-5.229 Y5.212 F540.000 E2.16788
G1 X-5.229 Y5.212 E2.16788
G1 X-4.631 Y4.867 E2.23063
G1 X0.481 Y2.780 E2.73275
G1 X0.481 Y-2.780 E3.23836
G1 X-4.631 Y-4.867 E3.74047
G1 X-5.229 Y-5.212 E3.80323
G1 X-11.685 Y-5.212 E4.39026
G1 X-11.685 Y-5.988 E4.46074
G1 X-2.336 Y-5.988 E5.31084
G1 X8.777 Y-2.986 E6.35755
G1 X8.777 Y-2.986 E6.35755
G1 X12.988 Y-1.592 E6.76082
G1 X12.988 Y1.603 E7.05133
G1 X12.559 Y1.753 E7.09265
G1 X12.559 Y1.753 E7.09265
G1 X4.805 Y4.111 E7.82954
G1 X4.805 Y4.111 E7.82954
G1 X-2.351 Y5.988 E8.50226
G1 X-5.843 Y5.988 E8.81984
G1 X-5.914 Y5.725 E8.84455
G1 X-5.734 Y4.739 F7800.000
G1 X-5.406 Y4.550 F540.000 E8.87898
G1 X-5.406 Y4.550 E8.87898
G1 X-4.923 Y4.271 E8.92970
G1 X-0.181 Y2.335 E9.39544
G1 X-0.181 Y-2.335 E9.82011
G1 X-4.923 Y-4.271 E10.28585
G1 X-5.406 Y-4.550 E10.33657
G1 X-12.347 Y-4.550 E10.96770
G1 X-12.347 Y-6.650 E11.15866
G1 X-2.255 Y-6.650 E12.07635
G1 X11.998 Y-2.663 E13.42207
G1 X13.650 Y-2.054 E13.58218
G1 X13.650 Y2.050 E13.95540
G1 X13.295 Y2.197 E13.99029
G1 X5.468 Y4.614 E14.73522
G1 X5.468 Y4.614 E14.73522
G1 X-2.267 Y6.650 E15.46247
G1 X-12.347 Y6.650 E16.37907
G1 X-12.347 Y4.550 E16.57003
G1 X-5.734 Y4.550 E17.17134
G1 X-5.734 Y4.634 E17.17901
G1 F1800.000 E16.17901
G92 E0
G1 X2.004 Y3.744 F7800.000
G1 F1800.000 E1.00000
G1 X1.608 Y3.348 F1080.000 E1.05101
G1 X1.608 Y2.410 E1.13643
G1 X2.750 Y3.552 E1.28346
G1 X3.491 Y3.355 E1.35330
G1 X1.608 Y1.472 E1.59578
G1 X1.608 Y0.534 E1.68120
G1 X4.225 Y3.151 E2.01816
G1 X4.959 Y2.946 E2.08751
G1 X1.608 Y-0.404 E2.51896
G1 X1.608 Y-1.342 E2.60438
G1 X5.692 Y2.742 E3.13031
G1 X6.426 Y2.538 E3.19966
G1 X1.608 Y-2.280 E3.82007
G1 X1.608 Y-3.218 E3.90550
G1 X7.160 Y2.333 E4.62040
G1 X7.892 Y2.127 E4.68964
G1 X2.176 Y-3.589 E5.42575
G1 X3.450 Y-3.252 E5.54580
G1 X8.609 Y1.906 E6.21013
G1 X9.326 Y1.686 E6.27847
G1 X4.729 Y-2.912 E6.87048
G1 X6.045 Y-2.534 E6.99516
G1 X10.044 Y1.465 E7.51008
G1 X10.761 Y1.244 E7.57842
G1 X7.361 Y-2.156 E8.01625
G1 X8.683 Y-1.772 E8.14160
G1 X11.457 Y1.002 E8.49881
G1 X11.861 Y0.468 E8.55979
G1 X10.063 Y-1.330 E8.79133
G1 X11.465 Y-0.867 E8.92577
G1 X11.861 Y-0.470 E8.97679
M104 S200 ; set temperature
M140 S0 ; set bed temperature
G1 F1800.000 E7.97679
G92 E0
G1 Z0.600 F7800.000
G1 X-11.951 Y6.024
G1 F1800.000 E1.00000
G1 X-11.951 Y5.176 F1800.000 E1.03389
G1 X-5.238 Y5.176 E1.30239
G1 X-3.923 Y4.417 E1.36316
G1 X0.145 Y2.756 E1.53892
G1 X0.145 Y-2.756 E1.75940
G1 X-3.923 Y-4.417 E1.93515
G1 X-5.238 Y-5.176 E1.99593
G1 X-11.951 Y-5.176 E2.26443
G1 X-11.951 Y-6.024 E2.29831
G1 X-1.823 Y-6.024 E2.70343
G1 X3.022 Y-4.801 E2.90329
G1 X3.022 Y-4.801 E2.90329
G1 X12.128 Y-2.257 E3.28147
G1 X12.128 Y-2.257 E3.28147
G1 X13.024 Y-1.970 E3.31911
G1 X13.024 Y1.976 E3.47695
G1 X12.416 Y2.170 E3.50247
G1 X12.416 Y2.170 E3.50247
G1 X-1.778 Y6.024 E4.09078
G1 X-11.892 Y6.024 E4.49533
G1 X-12.340 Y6.413 F7800.000
G1 X-12.340 Y4.787 F1800.000 E4.56039
G1 X-5.343 Y4.787 E4.84030
G1 X-4.094 Y4.066 E4.89795
G1 X-0.244 Y2.494 E5.06430
G1 X-0.244 Y-2.494 E5.26384
G1 X-4.094 Y-4.066 E5.43019
G1 X-5.343 Y-4.787 E5.48784
G1 X-12.340 Y-4.787 E5.76775
G1 X-12.340 Y-6.413 E5.83281
G1 X-1.775 Y-6.413 E6.25541
G1 X11.482 Y-2.873 E6.80427
G1 X11.482 Y-2.873 E6.80427
G1 X12.517 Y-2.542 E6.84776
G1 X12.517 Y-2.542 E6.84776
G1 X13.413 Y-2.255 E6.88540
G1 X13.413 Y2.252 E7.06568
G1 X-1.731 Y6.413 E7.69390
G1 X-12.281 Y6.413 E8.11591
G1 X-12.730 Y6.803 F7800.000
G1 X-12.730 Y4.397 F1800.000 E8.21213
G1 X-5.447 Y4.397 E8.50345
G1 X-4.266 Y3.715 E8.55799
G1 X-0.634 Y2.232 E8.71493
G1 X-0.634 Y-2.232 E8.89353
G1 X-4.266 Y-3.715 E9.05047
G1 X-5.447 Y-4.397 E9.10501
G1 X-12.730 Y-4.397 E9.39633
G1 X-12.730 Y-6.803 E9.49255
G1 X-1.728 Y-6.803 E9.93264
G1 X13.803 Y-2.539 E10.57685
G1 X13.803 Y2.528 E10.77956
G1 X-1.684 Y6.803 E11.42221
G1 X-12.671 Y6.803 E11.86167
G1 F1800.000 E10.86167
G92 E0
G1 X-4.387 Y5.323 F7800.000
G1 F1800.000 E1.00000
G1 X-3.830 Y4.766 F3600.000 E1.03191
G1 X-3.829 Y5.323 F7800.000
G1 X-2.832 Y4.326 F3600.000 E1.08896
G1 X-2.713 Y5.323 F7800.000
G1 X-0.946 Y3.556 F3600.000 E1.19006
G1 X-0.003 Y3.171 F7800.000
G1 X-2.155 Y5.323 F3600.000 E1.31320
G1 X-1.597 Y5.323 F7800.000
G1 X7.169 Y-3.443 F3600.000 E1.81478
G1 X7.609 Y-3.325 F7800.000
G1 X-1.039 Y5.323 F3600.000 E2.30961
G1 X-0.546 Y5.389 F7800.000
G1 X8.043 Y-3.201 F3600.000 E2.80105
G1 X8.477 Y-3.076 F7800.000
G1 X0.205 Y5.196 F3600.000 E3.27432
G1 X0.955 Y5.003 F7800.000
G1 X8.910 Y-2.952 F3600.000 E3.72944
G1 X9.344 Y-2.827 F7800.000
G1 X1.706 Y4.810 F3600.000 E4.16641
G1 X2.457 Y4.617 F7800.000
G1 X9.777 Y-2.703 F3600.000 E4.58521
G1 X10.211 Y-2.578 F7800.000
G1 X3.208 Y4.424 F3600.000 E4.98586
G1 X3.959 Y4.231 F7800.000
G1 X10.644 Y-2.454 F3600.000 E5.36835
G1 X11.078 Y-2.329 F7800.000
G1 X4.710 Y4.039 F3600.000 E5.73268
G1 X5.461 Y3.846 F7800.000
G1 X11.502 Y-2.196 F3600.000 E6.07833
G1 X11.925 Y-2.060 F7800.000
G1 X6.228 Y3.637 F3600.000 E6.40431
G1 X7.001 Y3.422 F7800.000
G1 X12.348 Y-1.925 F3600.000 E6.71022
G1 X12.746 Y-1.765 F7800.000
G1 X7.775 Y3.206 F3600.000 E6.99463
G1 X8.548 Y2.991 F7800.000
G1 X12.746 Y-1.207 F3600.000 E7.23479
G1 X12.746 Y-0.649 F7800.000
G1 X9.322 Y2.775 F3600.000 E7.43069
G1 X10.104 Y2.551 F7800.000
G1 X12.746 Y-0.091 F3600.000 E7.58184
G1 X12.746 Y0.467 F7800.000
G1 X10.910 Y2.303 F3600.000 E7.68687
G1 X11.716 Y2.055 F7800.000
G1 X12.746 Y1.025 F3600.000 E7.74577
G1 X12.746 Y1.583 F7800.000
G1 X12.522 Y1.807 F3600.000 E7.75855
G1 F1800.000 E6.75855
G92 E0
G1 X6.728 Y-3.560 F7800.000
G1 F1800.000 E1.00000
G1 X0.423 Y2.745 F3600.000 E1.36072
G1 X0.423 Y2.187 F7800.000
G1 X6.287 Y-3.676 F3600.000 E1.69618
G1 X5.845 Y-3.793 F7800.000
G1 X0.423 Y1.629 F3600.000 E2.00639
G1 X0.423 Y1.071 F7800.000
G1 X5.404 Y-3.910 F3600.000 E2.29133
G1 X4.962 Y-4.026 F7800.000
G1 X0.423 Y0.513 F3600.000 E2.55102
G1 X0.423 Y-0.045 F7800.000
G1 X4.521 Y-4.143 F3600.000 E2.78545
G1 X4.079 Y-4.259 F7800.000
G1 X0.423 Y-0.603 F3600.000 E2.99462
G1 X0.423 Y-1.161 F7800.000
G1 X3.638 Y-4.376 F3600.000 E3.17854
G1 X3.196 Y-4.493 F7800.000
G1 X0.423 Y-1.720 F3600.000 E3.33720
G1 X0.423 Y-2.278 F7800.000
G1 X2.755 Y-4.609 F3600.000 E3.47060
G1 X2.313 Y-4.726 F7800.000
G1 X0.423 Y-2.836 F3600.000 E3.57874
G1 X0.077 Y-3.047 F7800.000
G1 X1.872 Y-4.842 F3600.000 E3.68143
G1 X1.427 Y-4.955 F7800.000
G1 X-0.319 Y-3.209 F3600.000 E3.78133
G1 X-0.715 Y-3.371 F7800.000
G1 X0.980 Y-5.066 F3600.000 E3.87831
G1 X0.533 Y-5.177 F7800.000
G1 X-1.112 Y-3.533 F3600.000 E3.97238
G1 X-1.508 Y-3.695 F7800.000
G1 X0.085 Y-5.288 F3600.000 E4.06355
G1 X-0.362 Y-5.399 F7800.000
G1 X-1.904 Y-3.856 F3600.000 E4.15181
G1 X-2.301 Y-4.018 F7800.000
G1 X-0.995 Y-5.323 F3600.000 E4.22649
G1 X-1.553 Y-5.323 F7800.000
G1 X-2.697 Y-4.180 F3600.000 E4.29192
G1 X-3.093 Y-4.342 F7800.000
G1 X-2.111 Y-5.323 F3600.000 E4.34809
G1 X-2.669 Y-5.323 F7800.000
G1 X-3.489 Y-4.503 F3600.000 E4.39500
G1 X-3.883 Y-4.668 F7800.000
G1 X-3.227 Y-5.323 F3600.000 E4.43251
G1 X-3.785 Y-5.323 F7800.000
G1 X-4.237 Y-4.872 F3600.000 E4.45834
G1 X-4.567 Y-5.100 F7800.000
G1 X-4.344 Y-5.323 F3600.000 E4.47111
G1 F1800.000 E3.47111
G92 E0
G1 X-1.889 Y3.941 F7800.000
G1 F1800.000 E1.00000
G1 X-3.271 Y5.323 F3600.000 E1.07908
G1 X-2.964 Y5.490 F7800.000
G1 X-3.220 Y5.746 F3600.000 E1.09355
G1 X-4.341 Y5.490 F7800.000
G1 X-4.597 Y5.746 F3600.000 E1.10803
G1 X-5.683 Y5.454 F7800.000
G1 X-5.975 Y5.746 F3600.000 E1.12451
G1 X-7.061 Y5.454 F7800.000
G1 X-7.352 Y5.746 F3600.000 E1.14099
G1 X-8.438 Y5.454 F7800.000
G1 X-8.729 Y5.746 F3600.000 E1.15746
G1 X-9.816 Y5.454 F7800.000
G1 X-10.107 Y5.746 F3600.000 E1.17394
G1 X-11.193 Y5.454 F7800.000
G1 X-11.484 Y5.746 F3600.000 E1.19042
G1 F1800.000 E0.19042
G92 E0
G1 X-1.810 Y5.713 F7800.000
G1 F1800.000 E1.00000
G1 X-1.586 Y5.490 F3600.000 E1.01263
G1 F1800.000 E0.01263
G92 E0
G1 X-1.851 Y-5.490 F7800.000
G1 F1800.000 E1.00000
G1 X-1.628 Y-5.713 F3600.000 E1.01262
G1 X-2.972 Y-5.746 F7800.000
G1 X-3.228 Y-5.490 F3600.000 E1.02710
G1 X-4.350 Y-5.746 F7800.000
G1 X-4.606 Y-5.490 F3600.000 E1.04158
G1 X-5.727 Y-5.746 F7800.000
G1 X-6.019 Y-5.454 F3600.000 E1.05805
G1 X-7.105 Y-5.746 F7800.000
G1 X-7.396 Y-5.454 F3600.000 E1.07453
G1 X-8.482 Y-5.746 F7800.000
G1 X-8.774 Y-5.454 F3600.000 E1.09101
G1 X-9.860 Y-5.746 F7800.000
G1 X-10.151 Y-5.454 F3600.000 E1.10749
G1 X-11.237 Y-5.746 F7800.000
G1 X-11.528 Y-5.454 F3600.000 E1.12397
G1 F1800.000 E0.12397
G92 E0
G1 Z0.850 F7800.000
G1 X-12.143 Y6.024
G1 F1800.000 E1.00000
G1 X-12.143 Y5.176 F1800.000 E1.03389
G1 X-5.238 Y5.176 E1.31006
G1 X-3.319 Y4.068 E1.39871
G1 X-0.105 Y2.756 E1.53759
G1 X-0.105 Y-2.756 E1.75807
G1 X-3.319 Y-4.068 E1.89695
G1 X-5.238 Y-5.176 E1.98560
G1 X-12.143 Y-5.176 E2.26177
G1 X-12.143 Y-6.024 E2.29566
G1 X-1.399 Y-6.024 E2.72539
G1 X10.614 Y-2.914 E3.22176
G1 X10.614 Y-2.914 E3.22176
G1 X13.024 Y-2.215 E3.32212
G1 X13.024 Y2.208 E3.49905
G1 X-1.397 Y6.024 E4.09572
G1 X-12.084 Y6.024 E4.52318
G1 X-12.532 Y6.413 F7800.000
G1 X-12.532 Y4.787 F1800.000 E4.58824
G1 X-5.343 Y4.787 E4.87582
G1 X-3.491 Y3.718 E4.96136
G1 X-0.494 Y2.494 E5.09083
G1 X-0.494 Y-2.494 E5.29037
G1 X-3.491 Y-3.718 E5.41984
G1 X-5.343 Y-4.787 E5.50537
G1 X-12.532 Y-4.787 E5.79295
G1 X-12.532 Y-6.413 E5.85801
G1 X-1.352 Y-6.413 E6.30523
G1 X12.933 Y-2.653 E6.89609
G1 X13.095 Y-2.602 E6.90287
G1 X13.095 Y-2.602 E6.90288
G1 X13.413 Y-2.500 E6.91625
G1 X13.413 Y2.496 E7.11606
G1 X12.271 Y2.847 E7.16386
G1 X12.271 Y2.847 E7.16386
G1 X-1.350 Y6.413 E7.72707
G1 X-12.473 Y6.413 E8.17199
G1 X-12.922 Y6.803 F7800.000
G1 X-12.922 Y4.397 F1800.000 E8.26822
G1 X-5.447 Y4.397 E8.56721
G1 X-3.663 Y3.367 E8.64963
G1 X-0.884 Y2.232 E8.76969
G1 X-0.884 Y-2.232 E8.94829
G1 X-3.663 Y-3.367 E9.06835
G1 X-5.447 Y-4.397 E9.15077
G1 X-12.922 Y-4.397 E9.44976
G1 X-12.922 Y-6.803 E9.54598
G1 X-1.304 Y-6.803 E10.01069
G1 X13.046 Y-3.026 E10.60426
G1 X13.484 Y-2.886 E10.62266
G1 X13.484 Y-2.886 E10.62266
G1 X13.803 Y-2.784 E10.63603
G1 X13.803 Y2.783 E10.85872
G1 X12.661 Y3.135 E10.90652
G1 X12.661 Y3.135 E10.90652
G1 X-1.303 Y6.803 E11.48403
G1 X-12.863 Y6.803 E11.94641
G1 F1800.000 E10.94641
G92 E0
G1 X-2.303 Y3.917 F7800.000
G1 F1800.000 E1.00000
G1 X-2.080 Y4.140 F3600.000 E1.01285
G1 X-1.904 Y3.754 F7800.000
G1 X-1.518 Y4.140 F3600.000 E1.03506
G1 X-1.505 Y3.591 F7800.000
G1 X-0.956 Y4.140 F3600.000 E1.06665
G1 X-0.395 Y4.140 F7800.000
G1 X-1.106 Y3.429 F3600.000 E1.10761
G1 X-0.708 Y3.266 F7800.000
G1 X1.163 Y5.137 F3600.000 E1.21528
G1 X0.712 Y5.247 F7800.000
G1 X-0.211 Y4.324 F3600.000 E1.26836
G1 X-0.211 Y4.886 F7800.000
G1 X0.260 Y5.357 F3600.000 E1.29546
G1 X1.615 Y5.026 F7800.000
G1 X-0.309 Y3.103 F3600.000 E1.40616
G1 X0.090 Y2.940 F7800.000
G1 X2.062 Y4.912 F3600.000 E1.51962
G1 X2.508 Y4.796 F7800.000
G1 X0.173 Y2.461 F3600.000 E1.65399
G1 X0.173 Y1.900 F7800.000
G1 X2.955 Y4.681 F3600.000 E1.81405
G1 X3.401 Y4.566 F7800.000
G1 X0.173 Y1.338 F3600.000 E1.99980
G1 X0.173 Y0.776 F7800.000
G1 X3.848 Y4.451 F3600.000 E2.21124
G1 X4.294 Y4.335 F7800.000
G1 X0.173 Y0.215 F3600.000 E2.44838
G1 X0.173 Y-0.347 F7800.000
G1 X4.740 Y4.220 F3600.000 E2.71121
G1 X5.187 Y4.105 F7800.000
G1 X0.173 Y-0.909 F3600.000 E2.99974
G1 X0.173 Y-1.470 F7800.000
G1 X5.633 Y3.990 F3600.000 E3.31396
G1 X6.080 Y3.874 F7800.000
G1 X0.173 Y-2.032 F3600.000 E3.65387
G1 X0.173 Y-2.594 F7800.000
G1 X6.526 Y3.759 F3600.000 E4.01947
G1 X6.973 Y3.644 F7800.000
G1 X-0.812 Y-4.140 F3600.000 E4.46744
G1 X-1.373 Y-4.140 F7800.000
G1 X-0.509 Y-3.276 F3600.000 E4.51721
G1 X-0.250 Y-4.140 F7800.000
G1 X7.419 Y3.529 F3600.000 E4.95855
G1 X7.866 Y3.414 F7800.000
G1 X-0.211 Y-4.663 F3600.000 E5.42332
G1 X-0.211 Y-5.224 F7800.000
G1 X8.307 Y3.294 F3600.000 E5.91351
G1 X8.747 Y3.171 F7800.000
G1 X0.288 Y-5.288 F3600.000 E6.40030
G1 X1.035 Y-5.102 F7800.000
G1 X9.186 Y3.049 F3600.000 E6.86938
G1 X9.625 Y2.927 F7800.000
G1 X1.782 Y-4.917 F3600.000 E7.32074
G1 X2.529 Y-4.732 F7800.000
G1 X10.065 Y2.804 F3600.000 E7.75440
G1 X10.504 Y2.682 F7800.000
G1 X3.276 Y-4.546 F3600.000 E8.17035
G1 X4.025 Y-4.359 F7800.000
G1 X10.943 Y2.559 F3600.000 E8.56850
G1 X11.383 Y2.437 F7800.000
G1 X4.788 Y-4.158 F3600.000 E8.94801
G1 X5.551 Y-3.956 F7800.000
G1 X11.822 Y2.315 F3600.000 E9.30888
G1 X12.253 Y2.184 F7800.000
G1 X6.315 Y-3.754 F3600.000 E9.65060
G1 X7.078 Y-3.553 F7800.000
G1 X12.682 Y2.051 F3600.000 E9.97310
G1 X12.746 Y1.553 F7800.000
G1 X7.841 Y-3.351 F3600.000 E10.25535
G1 X8.604 Y-3.150 F7800.000
G1 X12.746 Y0.992 F3600.000 E10.49367
G1 X12.746 Y0.430 F7800.000
G1 X9.371 Y-2.945 F3600.000 E10.68790
G1 X10.159 Y-2.719 F7800.000
G1 X12.746 Y-0.132 F3600.000 E10.83678
G1 X12.746 Y-0.694 F7800.000
